source/img/icon-insta.svg

<svg  viewBox="0 0 32 32"  xmlns="http://www.w3.org/2000/svg">
<path d="M16 11.2002C13.3531 11.2002 11.2 13.3533 11.2 16.0002C11.2 18.6471 13.3531 20.8002 16 20.8002C18.6468 20.8002 20.8 18.6471 20.8 16.0002C20.8 13.3533 18.6468 11.2002 16 11.2002Z" />
<path fill-rule="evenodd" clip-rule="evenodd" d="M3.19995 23.4811V8.51926C3.19995 5.5816 5.58136 3.2002 8.51901 3.2002H23.4809C26.4185 3.2002 28.8 5.5816 28.8 8.51926V23.4811C28.8 26.4188 26.4185 28.8002 23.4809 28.8002H8.51901C5.58136 28.8002 3.19995 26.4188 3.19995 23.4811ZM8.74651 13.2885C6.56792 19.6027 12.3975 25.4322 18.7117 23.2536C20.84 22.5196 22.5193 20.8402 23.2534 18.7121C25.432 12.3977 19.6025 6.56816 13.2881 8.74676C11.16 9.48082 9.48058 11.1604 8.74651 13.2885ZM24 8.80016C24.8836 8.80016 25.6 8.08382 25.6 7.20016C25.6 6.31651 24.8836 5.60016 24 5.60016C23.1163 5.60016 22.4 6.31651 22.4 7.20016C22.4 8.08382 23.1163 8.80016 24 8.80016Z"/>
</svg>

<svg viewBox="0 0 32 32" xmlns="http://www.w3.org/2000/svg"><path d="M16 11.2a4.805 4.805 0 00-4.8 4.8c0 2.647 2.153 4.8 4.8 4.8s4.8-2.153 4.8-4.8-2.153-4.8-4.8-4.8z"/><path fill-rule="evenodd" clip-rule="evenodd" d="M3.2 23.481V8.52A5.319 5.319 0 018.519 3.2h14.962A5.32 5.32 0 0128.8 8.52v14.96a5.32 5.32 0 01-5.32 5.32H8.52a5.319 5.319 0 01-5.32-5.32zm5.547-10.193c-2.18 6.315 3.65 12.144 9.965 9.966a7.344 7.344 0 004.541-4.542c2.179-6.314-3.65-12.144-9.965-9.965a7.345 7.345 0 00-4.541 4.542zM24 8.8a1.6 1.6 0 100-3.2 1.6 1.6 0 000 3.2z"/></svg>
